static/icons/cross.svg

<svg width="14" height="14" viewBox="0 0 14 14" fill="none" xmlns="http://www.w3.org/2000/svg">
<path d="M8.54193 7L13.7763 1.76503C13.9203 1.62092 13.9998 1.42866 14 1.22366C14 1.01854 13.9206 0.826054 13.7763 0.682174L13.3176 0.223559C13.1734 0.0791108 12.9812 0 12.776 0C12.5711 0 12.3788 0.0791108 12.2346 0.223559L7.00023 5.45819L1.76559 0.223559C1.62161 0.0791108 1.42925 0 1.22415 0C1.01927 0 0.826911 0.0791108 0.682927 0.223559L0.224 0.682174C-0.0746667 0.980861 -0.0746667 1.46668 0.224 1.76503L5.45852 7L0.224 12.2347C0.0799024 12.3791 0.000569106 12.5713 0.000569106 12.7763C0.000569106 12.9813 0.0799024 13.1736 0.224 13.3178L0.682813 13.7764C0.826797 13.9208 1.01927 14 1.22403 14C1.42914 14 1.6215 13.9208 1.76548 13.7764L7.00011 8.54169L12.2345 13.7764C12.3787 13.9208 12.571 14 12.7759 14H12.7761C12.9811 14 13.1733 13.9208 13.3175 13.7764L13.7762 13.3178C13.9202 13.1737 13.9997 12.9813 13.9997 12.7763C13.9997 12.5713 13.9202 12.3791 13.7762 12.2349L8.54193 7Z" fill="#9C0000"/>
</svg>

<svg width="14" height="14" fill="none" xmlns="http://www.w3.org/2000/svg"><path d="M8.5 7l5.3-5.2a.8.8 0 000-1.1l-.5-.5a.8.8 0 00-.5-.2c-.2 0-.4 0-.6.2L7 5.5 1.8.2a.8.8 0 00-.6-.2C1 0 .8 0 .7.2L.2.7c-.3.3-.3.8 0 1L5.5 7 .2 12.2l-.2.6c0 .2 0 .4.2.5l.5.5.5.2c.2 0 .4 0 .6-.2L7 8.5l5.2 5.3.6.2c.2 0 .4 0 .5-.2l.5-.5.2-.5c0-.2 0-.4-.2-.6L8.5 7z" fill="#9C0000"/></svg>
